X: 282
T: Hooker's Hornpipe [2]
B: canberra pickers and fiddlers
B: tunes
M:2/4
L:1/8
R: reel
Q: 1/4=100
K:G
V:1 
e/f/|gf/a/ gd|e/f/g/e/ d/c/B/d/|g/fa/ g/e/d/g/|e/ab/ ae/f/|
gf/a/ gd|e/f/g/e/ d/B/G/B/|c/B/A/c/ B/A/G/E/|D/F/A/F/ G:|
|:D/F/|G/F/G/A/ B/c/d/B/|c/B/c/d/ e/f/g/e/|de/f/ g/e/d/B/|A/B/A/G/ F/D/E/F/|
GG/A/ B/c/d/B/|c/B/c/d/ e/f/g/a/|b/g/a/g/ e/f/g/e/|d/B/A/F/ G:||
% abcbook-tune_id 63da5934838e914c6c19a631
% abcbook-tune_composer_id 
% abcbook-link-0 https://www.youtube.com/watch?v=myK6OXmvNw4
% abcbook-boost 0
% abcbook-difficulty 0
% abcbook-tags canberra pickers and fiddlers,old time tunes,© free
% abcbook-tablature 
% abcbook-transpose 
% abcbook-tuning GDAD
% abcbook-lastupdated 1703028052970
% abcbook-src-url https://tunebook.net/scrape/tunes.abc
% abcbook-soundfonts 
% abcbook-repeats 1
%%gchordfont "itim-music,Itim" 20

